!!! OTL: Berkowitz480
!!! Chapter: 1
!!! Section: IV
!!! Page: 119
!!! Mode: 
!!! Encoder: DJB
**kern
*staff1
*I"Piano
=1-
*clefG2
*k[b-e-a-]
*E-:
*M4/4
8r
8b-\
8r
8g/
8r
16b-\LL
16cc\JJ
16b-/LL
16a-/J
8g/J
=2
8r
8a-/
8r
8f/
8r
16a-/LL
16b-/JJ
16a-/LL
16g/J
8f/J
=3
8r
16g/LL
16a-/JJ
16g/LL
16f/J
8e-/J
8f/
4b-\
8f/
=4
*M3/4
8f/L
[8cc/J
16cc/LL]
16f/
16g/
16an/JJ
8b-\
8r
=5
!!linebreak:original
*M4/4
8b-\
8r
8r
8g/
8r
16b-\LL
16cc\JJ
16b-/LL
16a-/J
8g/J
=6
8r
8a-/L
8en/
8f/J
8r
16a-/LL
16b-/JJ
16a-/LL
16g/J
8f/J
=7
8g/
8r
8e-/L
8a-/J
8r
8f/L
8b-/J
8r
=8
*M3/4
8g/L
8cc/J
8r
8a-/
8dd\
8r
=9
!!linebreak:original
*M4/4
4ee-\
8b-\
16r
16cc\
16b-/LL
16a-/
16g/
16f/JJ
4e-/
==
*-
